X: 1
T: The Trip To Windsor
R: reel
M: 4/4
L: 1/8
K: Amaj
|: A/2A/2A (AB) Ace=g | f/2f/2f (fg) fef^g | agfe fgaf |1 ecBc AFEF :|2 ecBd cA A2 ||
|:efec efae | ((3fga) (ec) BAcB | AFEC EFAE | ((3FGA) (EC) B,A,CB, |
| A,2 (CE) FECE | AEcB Aceg | agfe fgaf |1 ecBd (cA) Ac :|2 ecBc ~A4 ||


Tune 1074	Setting 14302

